X:198
T:Little Serenade
M:3/4
L:1/8
C:J. Haydn (Seek)
K:G
Bc|"G"d2 d2 d2|d3 gbg|"D"gfed c2|"D"c4 "G"B2|
"Am"BAcBdc|^de=dcBA|"G"G4 "D"BA|"G"G2 z2:|
|:BA|"D"A4 cB|"G"B4 d^c|"A"^cegece|"D"d3 cBc|
"G"d2 d2 d2|d3 gbg|"D"gfed c2|c4 "G"B2|
"Am"BAcBdc|^de=dcBA|"G"G4 "D"BA|"G"G2 z2:||
